resources/haticons/SVG/unarchive.svg

<!-- Generated by IcoMoon.io -->
<svg version="1.1" xmlns="http://www.w3.org/2000/svg" width="24" height="24" viewBox="0 0 24 24">
<title>unarchive</title>
<path d="M5.109 5.016h13.781l-0.938-1.031h-12zM12 9.516l-5.484 5.484h3.469v2.016h4.031v-2.016h3.469zM20.531 5.203q0.469 0.563 0.469 1.313v12.469q0 0.797-0.609 1.406t-1.406 0.609h-13.969q-0.844 0-1.43-0.586t-0.586-1.43v-12.469q0-0.75 0.469-1.313l1.359-1.641q0.469-0.563 1.172-0.563h12q0.703 0 1.172 0.563z"></path>
</svg>

<svg xmlns="http://www.w3.org/2000/svg" width="24" height="24"><path d="M5.109 5.016H18.89l-.938-1.031h-12zM12 9.516L6.516 15h3.469v2.016h4.031V15h3.469zm8.531-4.313Q21 5.766 21 6.516v12.469q0 .797-.609 1.406T18.985 21H5.016q-.844 0-1.43-.586T3 18.984V6.515q0-.75.469-1.313l1.359-1.641Q5.297 2.998 6 2.998h12q.703 0 1.172.563z"/></svg>
